X:32
T: Das Schwabentoechterlein
N: Q0073J
O: Mitteleuropa, Deutschland / UdSSR, Ostpreussen
R: Ballade, Weglaufen, Schwangerschaft, Rueckkehr
M: 3/4
L: 1/16
K: G
B2 | B2B2B4B3B | B3AA4z2
d2 | d2d2e4d4 | d4B4z2
d2 | B2d2g2a2g4 | B3ee4z2
e2 | e2e2d4c3A | A4G4z2

